images/unum.svg

<?xml version="1.0" encoding="UTF-8" standalone="no"?>
<svg width="157px" height="50px" viewBox="0 0 157 50" version="1.1" xmlns="http://www.w3.org/2000/svg" xmlns:xlink="http://www.w3.org/1999/xlink">
    <!-- Generator: sketchtool 41.2 (35397) - http://www.bohemiancoding.com/sketch -->
    <title>9AB131F9-044F-4E73-9D9A-1637530408DB</title>
    <desc>Created with sketchtool.</desc>
    <defs></defs>
    <g id="Page-1" stroke="none" stroke-width="1" fill="none" fill-rule="evenodd">
        <g id="design-end-year" transform="translate(-642.000000, -65.000000)" fill="#FFFFFF">
            <g id="Page-1" transform="translate(642.000000, 65.000000)">
                <path d="M83.95605,49.9315414 C96.475,49.9315414 99.29591,41.788605 99.29591,36.19834 L99.29591,19.73612 L90.06557,19.73612 L90.06557,35.57066 C90.06557,39.91189 87.62847,41.809597 83.95605,41.809597 C80.27524,41.809597 77.84024,39.91189 77.84024,35.57066 L77.84024,19.73612 L68.6099,19.73612 L68.6099,36.19834 C68.6099,41.788605 71.42871,49.9315414 83.95605,49.9315414" id="Fill-1"></path>
                <path d="M15.34825,49.9315414 C27.8693,49.9315414 30.6902,41.788605 30.6902,36.19834 L30.6902,19.73612 L21.46196,19.73612 L21.46196,35.57066 C21.46196,39.91189 19.02277,41.809597 15.34825,41.809597 C11.66953,41.809597 9.228244,39.91189 9.228244,35.57066 L9.228244,19.73612 L0,19.73612 L0,36.19834 C0,41.788605 2.829296,49.9315414 15.34825,49.9315414" id="Fill-3"></path>
                <path d="M49.65215,18.59204 C37.129,18.59204 34.3039,26.73288 34.3039,32.32315 L34.3039,48.785358 L43.53634,48.785358 L43.53634,32.94662 C43.53634,28.61589 45.97343,26.71399 49.65215,26.71399 C53.32877,26.71399 55.76376,28.61589 55.76376,32.94662 L55.76376,48.785358 L64.9941,48.785358 L64.9941,32.32315 C64.9941,26.73288 62.1711,18.59204 49.65215,18.59204" id="Fill-4"></path>
                <path d="M126.9639,23.25654 C126.5654,22.72544 124.2122,18.59204 116.6597,18.59204 C108.9667,18.59204 102.9096,22.43364 102.9096,31.71647 L102.9096,48.785358 L111.9323,48.785358 L111.9323,31.69967 C111.9323,28.70826 113.4634,26.41589 117.1882,26.41589 C120.9215,26.41589 122.4483,28.70826 122.4483,31.69967 L122.4483,48.785358 L131.4731,48.785358 L131.4731,31.69967 C131.4731,28.70826 133,26.41589 136.729,26.41589 C140.4602,26.41589 141.9891,28.70826 141.9891,31.69967 L141.9891,48.785358 L151.0076,48.785358 L151.0076,31.71647 C151.0076,22.43364 144.9485,18.59204 137.2596,18.59204 C129.7177,18.59204 127.3582,22.72544 126.9639,23.25654" id="Fill-5"></path>
                <path d="M42.06192,7.49547 C42.06192,11.69395 45.41764,14.92257 49.64795,14.92257 C53.83842,14.92257 57.13332,11.69395 57.13332,7.49547 C57.13332,3.3033 53.83842,0.07677 49.64795,0.07677 C45.41764,0.07677 42.06192,3.3033 42.06192,7.49547" id="Fill-6"></path>
                <path d="M76.35953,7.49547 C76.35953,11.69395 79.71944,14.92257 83.95186,14.92257 C88.14022,14.92257 91.43512,11.69395 91.43512,7.49547 C91.43512,3.3033 88.14022,0.07677 83.95186,0.07677 C79.71944,0.07677 76.35953,3.3033 76.35953,7.49547" id="Fill-7"></path>
                <path d="M119.3715,7.49547 C119.3715,11.69395 122.7315,14.92257 126.9639,14.92257 C131.1522,14.92257 134.4471,11.69395 134.4471,7.49547 C134.4471,3.3033 131.1522,0.07677 126.9639,0.07677 C122.7315,0.07677 119.3715,3.3033 119.3715,7.49547" id="Fill-8"></path>
                <path d="M153.6377,19.5283 C153.5014,19.5283 153.3755,19.55559 153.2769,19.58288 L153.2769,20.897 L153.5559,20.897 C154.0509,20.897 154.4368,20.71647 154.4368,20.16857 C154.4368,19.65425 153.9963,19.5283 153.6377,19.5283 L153.6377,19.5283 Z M154.5269,22.89547 L153.386,21.23918 L153.2769,21.23918 L153.2769,22.89547 L152.7652,22.89547 L152.7652,19.29528 C153.0064,19.17773 153.3399,19.10425 153.6817,19.10425 C154.4368,19.10425 154.9674,19.5283 154.9674,20.16857 C154.9674,20.78784 154.5269,21.14051 153.9334,21.20139 L155.1478,22.89547 L154.5269,22.89547 L154.5269,22.89547 Z M153.8076,18.35902 C152.2954,18.35902 151.0915,19.59128 151.0915,21.09433 C151.0915,22.58899 152.2954,23.80444 153.8076,23.80444 C155.3092,23.80444 156.5152,22.58899 156.5152,21.09433 C156.5152,19.59128 155.3092,18.35902 153.8076,18.35902 L153.8076,18.35902 Z M153.8076,24.27257 C152.0437,24.27257 150.6238,22.85979 150.6238,21.09433 C150.6238,19.33097 152.0437,17.89929 153.8076,17.89929 C155.5609,17.89929 156.9913,19.33097 156.9913,21.09433 C156.9913,22.85979 155.5609,24.27257 153.8076,24.27257 L153.8076,24.27257 Z" id="Fill-9"></path>
            </g>
        </g>
    </g>
</svg>

<svg width="157" height="50" viewBox="0 0 157 50" xmlns="http://www.w3.org/2000/svg"><title>9AB131F9-044F-4E73-9D9A-1637530408DB</title><path d="M83.956 49.932c12.519 0 15.34-8.143 15.34-13.734V19.736h-9.23v15.835c0 4.34-2.438 6.239-6.11 6.239-3.68 0-6.116-1.898-6.116-6.24V19.737h-9.23v16.462c0 5.59 2.819 13.734 15.346 13.734m-68.608-.001c12.521 0 15.342-8.143 15.342-13.734V19.736h-9.228v15.835c0 4.34-2.44 6.239-6.114 6.239-3.678 0-6.12-1.898-6.12-6.24V19.737H0v16.462c0 5.59 2.83 13.734 15.348 13.734m34.304-31.341c-12.523 0-15.348 8.14-15.348 13.731v16.462h9.232V32.947c0-4.331 2.437-6.233 6.116-6.233 3.677 0 6.112 1.902 6.112 6.233v15.838h9.23V32.323c0-5.59-2.823-13.731-15.342-13.731m77.312 4.665c-.399-.532-2.752-4.665-10.304-4.665-7.693 0-13.75 3.842-13.75 13.124v17.07h9.022V31.7c0-2.992 1.531-5.284 5.256-5.284 3.733 0 5.26 2.292 5.26 5.284v17.085h9.025V31.7c0-2.992 1.527-5.284 5.256-5.284 3.731 0 5.26 2.292 5.26 5.284v17.085h9.019V31.716c0-9.282-6.06-13.124-13.748-13.124-7.542 0-9.902 4.133-10.296 4.665M42.062 7.495c0 4.199 3.356 7.428 7.586 7.428 4.19 0 7.485-3.23 7.485-7.428 0-4.192-3.295-7.418-7.485-7.418-4.23 0-7.586 3.226-7.586 7.418m34.298 0c0 4.199 3.36 7.428 7.592 7.428 4.188 0 7.483-3.23 7.483-7.428 0-4.192-3.295-7.418-7.483-7.418-4.233 0-7.592 3.226-7.592 7.418m43.011 0c0 4.199 3.36 7.428 7.593 7.428 4.188 0 7.483-3.23 7.483-7.428 0-4.192-3.295-7.418-7.483-7.418-4.233 0-7.593 3.226-7.593 7.418m34.267 12.033a1.36 1.36 0 0 0-.361.055v1.314h.279c.495 0 .88-.18.88-.728 0-.515-.44-.64-.798-.64zm.889 3.367l-1.141-1.656h-.11v1.656h-.51v-3.6c.24-.117.574-.19.916-.19.755 0 1.285.423 1.285 1.064 0 .619-.44.972-1.034 1.032l1.215 1.694h-.621zm-.72-4.536a2.723 2.723 0 0 0-2.715 2.735 2.707 2.707 0 0 0 2.716 2.71 2.706 2.706 0 0 0 2.707-2.71c0-1.503-1.206-2.735-2.707-2.735zm0 5.914a3.171 3.171 0 0 1-3.183-3.179 3.187 3.187 0 0 1 3.184-3.195 3.193 3.193 0 0 1 3.183 3.195 3.178 3.178 0 0 1-3.183 3.179z" fill="#FFF" fill-rule="evenodd"/></svg>
